src/assets/icons/Matrix/Rotador/matrix9_m.svg

<?xml version="1.0" encoding="UTF-8"?>
<svg id="Capa_2" data-name="Capa 2" xmlns="http://www.w3.org/2000/svg" viewBox="0 0 38.75 1.67">
  <defs>
    <style>
      .cls-1 {
        fill: none;
        stroke: #000;
        stroke-linecap: round;
        stroke-linejoin: round;
        stroke-width: .05px;
      }
    </style>
  </defs>
  <g id="Capa_1-2" data-name="Capa 1">
    <g>
      <line class="cls-1" x1="3.17" y1=".86" x2="3.83" y2=".86"/>
      <line class="cls-1" x1="5.22" y1=".86" x2="5.84" y2=".86"/>
      <line class="cls-1" x1="7.25" y1=".86" x2="7.88" y2=".86"/>
      <line class="cls-1" x1="9.26" y1=".86" x2="9.92" y2=".86"/>
      <line class="cls-1" x1="11.3" y1=".86" x2="11.97" y2=".86"/>
      <polyline class="cls-1" points="13.34 .86 19.5 .86 19.53 .86 19.53 .9 19.55 .9 19.55 .93 19.55 1.02 19.55 1.05 19.58 1.08 19.61 1.08 20.45 1.08 20.48 1.08 20.48 1.11 20.48 1.13 20.48 1.31 20.48 1.34 20.48 1.37 20.45 1.4 20.42 1.43 20.39 1.43 20.36 1.43"/>
      <polyline class="cls-1" points="12.95 .86 12.95 1.02 12.98 1.05 13.01 1.05 19.34 1.05 19.34 1.08 19.37 1.08 19.37 1.11 19.37 1.19 19.37 1.22 19.41 1.22 19.41 1.25 19.44 1.25 20.25 1.25 20.25 1.31 20.28 1.34 20.28 1.37 20.28 1.4 20.3 1.4 20.3 1.43 20.33 1.43 20.36 1.43"/>
      <polyline class="cls-1" points="11.97 1.05 10.97 1.05 10.94 1.05 10.94 1.02 10.91 1.02 10.91 .86"/>
      <polyline class="cls-1" points="10.64 .36 10.64 1.28 10.64 1.31 10.64 1.34 10.67 1.34 10.7 1.34 10.85 1.34 10.88 1.34 10.91 1.37 10.91 1.4 10.91 1.58 10.91 1.61 10.88 1.65 10.85 1.65 10.19 1.65 10.16 1.65 10.13 1.61 10.13 1.58 10.13 1.4 10.13 1.37 10.16 1.34 10.19 1.34 10.41 1.34 10.44 1.34 10.47 1.34 10.47 1.31 10.47 1.28 10.47 .77"/>
      <polyline class="cls-1" points="9.92 1.05 8.94 1.05 8.91 1.05 8.91 1.02 8.91 .86"/>
      <polyline class="cls-1" points="7.88 1.05 6.92 1.05 6.89 1.05 6.86 1.05 6.86 1.02 6.86 .86"/>
      <polyline class="cls-1" points="5.84 1.05 4.88 1.05 4.85 1.05 4.82 1.02 4.82 .86"/>
      <polyline class="cls-1" points="3.83 1.05 2.75 1.05 2.54 1.05 2.51 1.05 2.51 1.08 2.51 1.11 2.48 1.11 2.48 1.58 2.48 1.61 2.48 1.65 2.45 1.65 2.33 1.65 .05 1.65 .03 1.65 .03 1.61 .03 1.58 .03 1.52 .03 1.49 .03 1.46 .05 1.46 .23 1.46 .56 1.46 .59 1.49 .59 1.46 2.28 1.46 2.3 1.46 2.3 1.43 2.33 1.43 2.33 1.4 2.33 .8"/>
      <polyline class="cls-1" points="1.79 1.05 1.44 1.05 1.41 1.05 1.41 1.02 1.41 .93 1.41 .9 1.44 .9 1.44 .86 1.82 .86"/>
      <path class="cls-1" d="m3.15.84c.14-.16.16-.38.05-.57-.1-.18-.31-.28-.51-.24-.21.04-.37.2-.4.4"/>
      <path class="cls-1" d="m2.77.83c.15,0,.29-.11.31-.26.02-.15-.06-.3-.21-.35-.15-.05-.31.02-.38.15"/>
      <path class="cls-1" d="m1.78.83c.24,0,.45-.17.49-.41"/>
      <path class="cls-1" d="m1.78,1.02c.2,0,.39-.09.52-.25"/>
      <line class="cls-1" x1="2.48" y1=".83" x2="2.48" y2=".38"/>
      <line class="cls-1" x1="2.78" y1=".86" x2="2.54" y2=".86"/>
      <path class="cls-1" d="m2.48.82s.02.04.05.04"/>
      <path class="cls-1" d="m5.19.84c.14-.16.16-.38.05-.57-.1-.18-.31-.28-.51-.24-.21.04-.37.2-.4.4"/>
      <path class="cls-1" d="m4.82.83c.17,0,.3-.14.31-.3,0-.17-.12-.31-.28-.33-.16-.02-.32.09-.34.26"/>
      <path class="cls-1" d="m3.82.83c.24,0,.45-.17.49-.41"/>
      <path class="cls-1" d="m3.82,1.02c.33,0,.61-.23.66-.56"/>
      <path class="cls-1" d="m7.23.84c.14-.16.16-.38.05-.57-.1-.18-.31-.28-.51-.24-.21.04-.37.2-.4.4"/>
      <path class="cls-1" d="m6.86.83c.17,0,.3-.14.31-.3,0-.17-.12-.31-.28-.33-.16-.02-.32.09-.34.26"/>
      <path class="cls-1" d="m5.83.83c.24,0,.45-.17.49-.41"/>
      <path class="cls-1" d="m5.83,1.02c.33,0,.61-.23.66-.56"/>
      <path class="cls-1" d="m9.24.84c.14-.16.16-.38.05-.57-.1-.18-.31-.28-.51-.24-.21.04-.37.2-.4.4"/>
      <path class="cls-1" d="m8.87.83c.17,0,.3-.14.31-.3s-.12-.31-.28-.33c-.16-.02-.32.09-.34.26"/>
      <path class="cls-1" d="m7.87.83c.24,0,.45-.17.49-.41"/>
      <path class="cls-1" d="m7.87,1.02c.33,0,.61-.23.66-.56"/>
      <path class="cls-1" d="m11.28.84c.14-.16.16-.38.05-.57-.1-.18-.31-.28-.51-.24-.21.04-.37.2-.4.4"/>
      <path class="cls-1" d="m10.91.83c.15,0,.28-.11.3-.26s-.05-.29-.19-.35c-.14-.06-.3,0-.38.12"/>
      <path class="cls-1" d="m9.91.83c.24,0,.45-.17.49-.41"/>
      <path class="cls-1" d="m9.91,1.02c.21,0,.41-.1.54-.27"/>
      <path class="cls-1" d="m13.32.84c.14-.16.16-.38.05-.57-.1-.18-.31-.28-.51-.24-.21.04-.37.2-.4.4"/>
      <path class="cls-1" d="m12.95.83c.17,0,.3-.14.31-.3,0-.17-.12-.31-.28-.33-.16-.02-.32.09-.34.26"/>
      <path class="cls-1" d="m11.95.83c.24,0,.45-.17.49-.41"/>
      <path class="cls-1" d="m11.95,1.02c.33,0,.61-.23.66-.56"/>
      <line class="cls-1" x1="21.38" y1=".86" x2="22.04" y2=".86"/>
      <line class="cls-1" x1="23.42" y1=".86" x2="24.08" y2=".86"/>
      <line class="cls-1" x1="25.47" y1=".86" x2="26.09" y2=".86"/>
      <line class="cls-1" x1="27.5" y1=".86" x2="28.13" y2=".86"/>
      <line class="cls-1" x1="29.51" y1=".86" x2="30.17" y2=".86"/>
      <polyline class="cls-1" points="31.55 .86 37.61 .86 37.64 .9 37.64 .93 37.64 1.02 37.64 1.05 37.67 1.05 37.67 1.08 37.7 1.08 38.66 1.08 38.69 1.08 38.69 1.11 38.72 1.11 38.72 1.13 38.72 1.31 38.72 1.34 38.69 1.37 38.69 1.4 38.66 1.4 38.66 1.43 38.63 1.43 38.6 1.43"/>
      <polyline class="cls-1" points="31.16 .86 31.16 1.02 31.19 1.02 31.19 1.05 31.22 1.05 37.44 1.05 37.47 1.05 37.47 1.08 37.47 1.11 37.47 1.19 37.47 1.22 37.5 1.22 37.5 1.25 37.53 1.25 38.48 1.25 38.48 1.31 38.48 1.34 38.48 1.37 38.51 1.4 38.54 1.43 38.57 1.43 38.6 1.43"/>
      <polyline class="cls-1" points="30.17 1.05 29.19 1.05 29.16 1.05 29.16 1.02 29.16 .86"/>
      <polyline class="cls-1" points="28.85 .36 28.85 1.28 28.85 1.31 28.88 1.31 28.88 1.34 28.91 1.34 29.09 1.34 29.12 1.34 29.12 1.37 29.12 1.4 29.12 1.58 29.12 1.61 29.12 1.65 29.09 1.65 28.41 1.65 28.37 1.65 28.37 1.61 28.34 1.61 28.34 1.58 28.34 1.4 28.34 1.37 28.37 1.37 28.37 1.34 28.41 1.34 28.64 1.34 28.67 1.34 28.67 1.31 28.67 1.28 28.67 .77"/>
      <polyline class="cls-1" points="28.13 1.05 27.17 1.05 27.14 1.05 27.11 1.05 27.11 1.02 27.11 .86"/>
      <polyline class="cls-1" points="26.09 1.05 25.13 1.05 25.1 1.05 25.07 1.02 25.07 .86"/>
      <polyline class="cls-1" points="24.08 1.05 23.09 1.05 23.06 1.05 23.06 1.02 23.06 .86"/>
      <polyline class="cls-1" points="22.04 1.05 20.97 1.05 20.75 1.05 20.72 1.08 20.72 1.11 20.72 1.58 20.72 1.61 20.69 1.61 20.69 1.65 20.66 1.65 20.54 1.65 18.29 1.65 18.26 1.65 18.23 1.61 18.23 1.58 18.23 1.52 18.23 1.49 18.26 1.46 18.29 1.46 18.44 1.46 18.78 1.46 18.8 1.49 18.83 1.46 20.48 1.46 20.51 1.46 20.51 1.43 20.54 1.43 20.54 1.4 20.54 .8"/>
      <polyline class="cls-1" points="20 1.05 19.67 1.05 19.64 1.05 19.61 1.02 19.61 .93 19.61 .9 19.64 .9 19.64 .86 19.67 .86 20.03 .86"/>
      <path class="cls-1" d="m21.39.84c.14-.16.16-.38.05-.57-.1-.18-.31-.28-.51-.24-.21.04-.37.2-.4.4"/>
      <path class="cls-1" d="m21.01.83c.15,0,.29-.11.31-.26.02-.15-.06-.3-.21-.35-.15-.05-.31.02-.38.15"/>
      <path class="cls-1" d="m19.99.83c.24,0,.45-.17.49-.41"/>
      <path class="cls-1" d="m19.99,1.02c.2,0,.39-.09.52-.25"/>
      <line class="cls-1" x1="20.72" y1=".83" x2="20.72" y2=".38"/>
      <line class="cls-1" x1="21.03" y1=".86" x2="20.75" y2=".86"/>
      <path class="cls-1" d="m20.69.82s.02.04.05.04"/>
      <path class="cls-1" d="m23.4.84c.14-.16.16-.38.05-.57-.1-.18-.31-.28-.51-.24-.21.04-.37.2-.4.4"/>
      <path class="cls-1" d="m23.03.83c.17,0,.3-.14.31-.3s-.12-.31-.28-.33c-.16-.02-.32.09-.34.26"/>
      <path class="cls-1" d="m22.03.83c.24,0,.45-.17.49-.41"/>
      <path class="cls-1" d="m22.03,1.02c.33,0,.61-.23.66-.56"/>
      <path class="cls-1" d="m25.44.84c.14-.16.16-.38.05-.57-.1-.18-.31-.28-.51-.24-.21.04-.37.2-.4.4"/>
      <path class="cls-1" d="m25.07.83c.17,0,.3-.14.31-.3,0-.17-.12-.31-.28-.33-.16-.02-.32.09-.34.26"/>
      <path class="cls-1" d="m24.07.83c.24,0,.45-.17.49-.41"/>
      <path class="cls-1" d="m24.07,1.02c.33,0,.61-.23.66-.56"/>
      <path class="cls-1" d="m27.48.84c.14-.16.16-.38.05-.57-.1-.18-.31-.28-.51-.24-.21.04-.37.2-.4.4"/>
      <path class="cls-1" d="m27.11.83c.17,0,.3-.14.31-.3,0-.17-.12-.31-.28-.33-.16-.02-.32.09-.34.26"/>
      <path class="cls-1" d="m26.08.83c.24,0,.45-.17.49-.41"/>
      <path class="cls-1" d="m26.08,1.02c.33,0,.61-.23.66-.56"/>
      <path class="cls-1" d="m29.49.84c.14-.16.16-.38.05-.57-.1-.18-.31-.28-.51-.24-.21.04-.37.2-.4.4"/>
      <path class="cls-1" d="m29.12.83c.15,0,.28-.11.3-.26.03-.15-.05-.29-.19-.35-.14-.06-.3,0-.38.12"/>
      <path class="cls-1" d="m28.12.83c.24,0,.45-.17.49-.41"/>
      <path class="cls-1" d="m28.12,1.02c.21,0,.41-.1.54-.27"/>
      <path class="cls-1" d="m31.53.84c.14-.16.16-.38.05-.57-.1-.18-.31-.28-.51-.24-.21.04-.37.2-.4.4"/>
      <path class="cls-1" d="m31.16.83c.17,0,.3-.14.31-.3,0-.17-.12-.31-.28-.33-.16-.02-.32.09-.34.26"/>
      <path class="cls-1" d="m30.16.83c.24,0,.45-.17.49-.41"/>
      <path class="cls-1" d="m30.16,1.02c.33,0,.61-.23.66-.56"/>
    </g>
  </g>
</svg>

<?xml version="1.0" encoding="UTF-8" standalone="no"?>
<svg
   id="Capa_2"
   data-name="Capa 2"
   viewBox="0 0 20.5 1.6787905"
   version="1.1"
   sodipodi:docname="matrix9_m.svg"
   width="20.5"
   height="1.6787905"
   inkscape:version="1.3.2 (091e20e, 2023-11-25, custom)"
   xmlns:inkscape="http://www.inkscape.org/namespaces/inkscape"
   xmlns:sodipodi="http://sodipodi.sourceforge.net/DTD/sodipodi-0.dtd"
   xmlns="http://www.w3.org/2000/svg"
   xmlns:svg="http://www.w3.org/2000/svg">
  <sodipodi:namedview
     id="namedview73"
     pagecolor="#ffffff"
     bordercolor="#000000"
     borderopacity="0.25"
     inkscape:showpageshadow="2"
     inkscape:pageopacity="0.0"
     inkscape:pagecheckerboard="0"
     inkscape:deskcolor="#d1d1d1"
     showgrid="false"
     inkscape:zoom="52.877419"
     inkscape:cx="19.526293"
     inkscape:cy="0.84156906"
     inkscape:window-width="2560"
     inkscape:window-height="1369"
     inkscape:window-x="-8"
     inkscape:window-y="-8"
     inkscape:window-maximized="1"
     inkscape:current-layer="g73" />
  <defs
     id="defs1">
    <style
       id="style1">
      .cls-1 {
        fill: none;
        stroke: #000;
        stroke-linecap: round;
        stroke-linejoin: round;
        stroke-width: .05px;
      }
    </style>
  </defs>
  <g
     id="Capa_1-2"
     data-name="Capa 1"
     transform="translate(-0.005,0.00379047)">
    <g
       id="g73">
      <line
         class="cls-1"
         x1="3.1700001"
         y1="0.86000001"
         x2="3.8299999"
         y2="0.86000001"
         id="line1" />
      <line
         class="cls-1"
         x1="5.2199998"
         y1="0.86000001"
         x2="5.8400002"
         y2="0.86000001"
         id="line2" />
      <line
         class="cls-1"
         x1="7.25"
         y1="0.86000001"
         x2="7.8800001"
         y2="0.86000001"
         id="line3" />
      <line
         class="cls-1"
         x1="9.2600002"
         y1="0.86000001"
         x2="9.9200001"
         y2="0.86000001"
         id="line4" />
      <line
         class="cls-1"
         x1="11.3"
         y1="0.86000001"
         x2="11.97"
         y2="0.86000001"
         id="line5" />
      <polyline
         class="cls-1"
         points="13.34 .86 19.5 .86 19.53 .86 19.53 .9 19.55 .9 19.55 .93 19.55 1.02 19.55 1.05 19.58 1.08 19.61 1.08 20.45 1.08 20.48 1.08 20.48 1.11 20.48 1.13 20.48 1.31 20.48 1.34 20.48 1.37 20.45 1.4 20.42 1.43 20.39 1.43 20.36 1.43"
         id="polyline5" />
      <polyline
         class="cls-1"
         points="12.95 .86 12.95 1.02 12.98 1.05 13.01 1.05 19.34 1.05 19.34 1.08 19.37 1.08 19.37 1.11 19.37 1.19 19.37 1.22 19.41 1.22 19.41 1.25 19.44 1.25 20.25 1.25 20.25 1.31 20.28 1.34 20.28 1.37 20.28 1.4 20.3 1.4 20.3 1.43 20.33 1.43 20.36 1.43"
         id="polyline6" />
      <polyline
         class="cls-1"
         points="11.97 1.05 10.97 1.05 10.94 1.05 10.94 1.02 10.91 1.02 10.91 .86"
         id="polyline7" />
      <polyline
         class="cls-1"
         points="10.64 .36 10.64 1.28 10.64 1.31 10.64 1.34 10.67 1.34 10.7 1.34 10.85 1.34 10.88 1.34 10.91 1.37 10.91 1.4 10.91 1.58 10.91 1.61 10.88 1.65 10.85 1.65 10.19 1.65 10.16 1.65 10.13 1.61 10.13 1.58 10.13 1.4 10.13 1.37 10.16 1.34 10.19 1.34 10.41 1.34 10.44 1.34 10.47 1.34 10.47 1.31 10.47 1.28 10.47 .77"
         id="polyline8" />
      <polyline
         class="cls-1"
         points="9.92 1.05 8.94 1.05 8.91 1.05 8.91 1.02 8.91 .86"
         id="polyline9" />
      <polyline
         class="cls-1"
         points="7.88 1.05 6.92 1.05 6.89 1.05 6.86 1.05 6.86 1.02 6.86 .86"
         id="polyline10" />
      <polyline
         class="cls-1"
         points="5.84 1.05 4.88 1.05 4.85 1.05 4.82 1.02 4.82 .86"
         id="polyline11" />
      <polyline
         class="cls-1"
         points="3.83 1.05 2.75 1.05 2.54 1.05 2.51 1.05 2.51 1.08 2.51 1.11 2.48 1.11 2.48 1.58 2.48 1.61 2.48 1.65 2.45 1.65 2.33 1.65 .05 1.65 .03 1.65 .03 1.61 .03 1.58 .03 1.52 .03 1.49 .03 1.46 .05 1.46 .23 1.46 .56 1.46 .59 1.49 .59 1.46 2.28 1.46 2.3 1.46 2.3 1.43 2.33 1.43 2.33 1.4 2.33 .8"
         id="polyline12" />
      <polyline
         class="cls-1"
         points="1.79 1.05 1.44 1.05 1.41 1.05 1.41 1.02 1.41 .93 1.41 .9 1.44 .9 1.44 .86 1.82 .86"
         id="polyline13" />
      <path
         class="cls-1"
         d="M 3.15,0.84 C 3.29,0.68 3.31,0.46 3.2,0.27 3.1,0.09 2.89,-0.01 2.69,0.03 2.48,0.07 2.32,0.23 2.29,0.43"
         id="path13" />
      <path
         class="cls-1"
         d="M 2.77,0.83 C 2.92,0.83 3.06,0.72 3.08,0.57 3.1,0.42 3.02,0.27 2.87,0.22 2.72,0.17 2.56,0.24 2.49,0.37"
         id="path14" />
      <path
         class="cls-1"
         d="m 1.78,0.83 c 0.24,0 0.45,-0.17 0.49,-0.41"
         id="path15" />
      <path
         class="cls-1"
         d="m 1.78,1.02 c 0.2,0 0.39,-0.09 0.52,-0.25"
         id="path16" />
      <line
         class="cls-1"
         x1="2.48"
         y1="0.82999998"
         x2="2.48"
         y2="0.38"
         id="line16" />
      <line
         class="cls-1"
         x1="2.78"
         y1="0.86000001"
         x2="2.54"
         y2="0.86000001"
         id="line17" />
      <path
         class="cls-1"
         d="m 2.48,0.82 c 0,0 0.02,0.04 0.05,0.04"
         id="path17" />
      <path
         class="cls-1"
         d="M 5.19,0.84 C 5.33,0.68 5.35,0.46 5.24,0.27 5.14,0.09 4.93,-0.01 4.73,0.03 4.52,0.07 4.36,0.23 4.33,0.43"
         id="path18" />
      <path
         class="cls-1"
         d="m 4.82,0.83 c 0.17,0 0.3,-0.14 0.31,-0.3 C 5.13,0.36 5.01,0.22 4.85,0.2 4.69,0.18 4.53,0.29 4.51,0.46"
         id="path19" />
      <path
         class="cls-1"
         d="m 3.82,0.83 c 0.24,0 0.45,-0.17 0.49,-0.41"
         id="path20" />
      <path
         class="cls-1"
         d="m 3.82,1.02 c 0.33,0 0.61,-0.23 0.66,-0.56"
         id="path21" />
      <path
         class="cls-1"
         d="M 7.23,0.84 C 7.37,0.68 7.39,0.46 7.28,0.27 7.18,0.09 6.97,-0.01 6.77,0.03 6.56,0.07 6.4,0.23 6.37,0.43"
         id="path22" />
      <path
         class="cls-1"
         d="m 6.86,0.83 c 0.17,0 0.3,-0.14 0.31,-0.3 C 7.17,0.36 7.05,0.22 6.89,0.2 6.73,0.18 6.57,0.29 6.55,0.46"
         id="path23" />
      <path
         class="cls-1"
         d="m 5.83,0.83 c 0.24,0 0.45,-0.17 0.49,-0.41"
         id="path24" />
      <path
         class="cls-1"
         d="m 5.83,1.02 c 0.33,0 0.61,-0.23 0.66,-0.56"
         id="path25" />
      <path
         class="cls-1"
         d="M 9.24,0.84 C 9.38,0.68 9.4,0.46 9.29,0.27 9.19,0.09 8.98,-0.01 8.78,0.03 8.57,0.07 8.41,0.23 8.38,0.43"
         id="path26" />
      <path
         class="cls-1"
         d="m 8.87,0.83 c 0.17,0 0.3,-0.14 0.31,-0.3 C 9.19,0.37 9.06,0.22 8.9,0.2 8.74,0.18 8.58,0.29 8.56,0.46"
         id="path27" />
      <path
         class="cls-1"
         d="m 7.87,0.83 c 0.24,0 0.45,-0.17 0.49,-0.41"
         id="path28" />
      <path
         class="cls-1"
         d="M 7.87,1.02 C 8.2,1.02 8.48,0.79 8.53,0.46"
         id="path29" />
      <path
         class="cls-1"
         d="m 11.28,0.84 c 0.14,-0.16 0.16,-0.38 0.05,-0.57 -0.1,-0.18 -0.31,-0.28 -0.51,-0.24 -0.21,0.04 -0.37,0.2 -0.4,0.4"
         id="path30" />
      <path
         class="cls-1"
         d="m 10.91,0.83 c 0.15,0 0.28,-0.11 0.3,-0.26 0.02,-0.15 -0.05,-0.29 -0.19,-0.35 -0.14,-0.06 -0.3,0 -0.38,0.12"
         id="path31" />
      <path
         class="cls-1"
         d="m 9.91,0.83 c 0.24,0 0.45,-0.17 0.49,-0.41"
         id="path32" />
      <path
         class="cls-1"
         d="m 9.91,1.02 c 0.21,0 0.41,-0.1 0.54,-0.27"
         id="path33" />
      <path
         class="cls-1"
         d="m 13.32,0.84 c 0.14,-0.16 0.16,-0.38 0.05,-0.57 -0.1,-0.18 -0.31,-0.28 -0.51,-0.24 -0.21,0.04 -0.37,0.2 -0.4,0.4"
         id="path34" />
      <path
         class="cls-1"
         d="m 12.95,0.83 c 0.17,0 0.3,-0.14 0.31,-0.3 0,-0.17 -0.12,-0.31 -0.28,-0.33 -0.16,-0.02 -0.32,0.09 -0.34,0.26"
         id="path35" />
      <path
         class="cls-1"
         d="m 11.95,0.83 c 0.24,0 0.45,-0.17 0.49,-0.41"
         id="path36" />
      <path
         class="cls-1"
         d="m 11.95,1.02 c 0.33,0 0.61,-0.23 0.66,-0.56"
         id="path37" />
    </g>
  </g>
</svg>
